static/tools/vscode/build/out/media/apple-dark.svg

<svg width="18" height="20" viewBox="0 0 18 20" fill="none" xmlns="http://www.w3.org/2000/svg">
<path d="M9.20784 4.15385C9.98439 4.15385 10.9578 3.60458 11.5376 2.87222C12.0624 2.20852 12.4454 1.28162 12.4454 0.354737C12.4454 0.228862 12.4344 0.102988 12.4126 0C11.5484 0.0343294 10.5094 0.606485 9.88596 1.37318C9.39377 1.95677 8.94534 2.87222 8.94534 3.81056C8.94534 3.94787 8.96721 4.08518 8.97814 4.13096C9.03285 4.14241 9.12034 4.15385 9.20784 4.15385ZM6.47345 18C7.53438 18 8.00471 17.2562 9.32816 17.2562C10.6735 17.2562 10.9688 17.9772 12.15 17.9772C13.3094 17.9772 14.086 16.8558 14.8188 15.7572C15.6391 14.4984 15.9781 13.2625 16 13.2054C15.9235 13.1824 13.7031 12.2327 13.7031 9.56644C13.7031 7.25493 15.4531 6.2136 15.5516 6.1335C14.3923 4.39415 12.6313 4.34838 12.15 4.34838C10.8485 4.34838 9.78752 5.17229 9.12034 5.17229C8.39846 5.17229 7.44689 4.39415 6.32033 4.39415C4.17656 4.39415 2 6.24793 2 9.74952C2 11.9238 2.80938 14.2237 3.80469 15.7114C4.65781 16.9702 5.40157 18 6.47345 18Z" fill="white"/>
</svg>

<svg width="18" height="20" fill="none" xmlns="http://www.w3.org/2000/svg"><path d="M9.208 4.154c.776 0 1.75-.55 2.33-1.282.524-.663.907-1.59.907-2.517 0-.126-.01-.252-.032-.355-.865.034-1.904.606-2.527 1.373-.492.584-.94 1.5-.94 2.438 0 .137.021.274.032.32.055.011.142.023.23.023ZM6.473 18c1.061 0 1.532-.744 2.855-.744 1.346 0 1.64.721 2.822.721 1.16 0 1.936-1.121 2.669-2.22.82-1.259 1.16-2.495 1.181-2.552-.076-.023-2.297-.972-2.297-3.639 0-2.311 1.75-3.352 1.849-3.433-1.16-1.739-2.92-1.785-3.402-1.785-1.302 0-2.362.824-3.03.824-.722 0-1.673-.778-2.8-.778C4.177 4.394 2 6.248 2 9.75c0 2.174.81 4.474 1.805 5.961C4.658 16.971 5.402 18 6.473 18Z" fill="#fff"/></svg>
